src/actions/22/mail-replied.svg

<svg xmlns="http://www.w3.org/2000/svg" viewBox="0 0 22 22">
  <defs id="defs3051">
    <style type="text/css" id="current-color-scheme">
      .ColorScheme-Text {
        color:#2e3440;
      }
      </style>
  </defs>
 <path 
    style="fill:currentColor;fill-opacity:1;stroke:none" 
    d="M 3 3 L 3 4 L 3 5 L 3 6 L 1 9 L 1 10 L 1 11.400391 L 1 12 L 2 12 L 2 11 L 2 10.400391 L 2 10 L 2.4003906 10 L 3 10 L 4.078125 10 L 11 13.996094 L 17.921875 10 L 18 10 L 19 10 L 20 10 L 20 10.400391 L 20 11 L 20 12 L 20 18 L 14 18 L 7 18 L 7 19 L 8 19 L 14 19 L 20 19 L 21 19 L 21 18 L 21 12 L 21 11.400391 L 21 9.9863281 L 21 9 L 19 6 L 19 3 L 4 3 L 3 3 z M 4 4 L 18 4 L 18 5 L 18 8.7988281 L 11 12.839844 L 4 8.7988281 L 4 5 L 4 4 z M 5 5 L 5 5.9863281 L 4.9863281 6 L 5 6 L 17 6 L 17.013672 6 L 17 5.9863281 L 17 5 L 5 5 z M 5 7 L 5 8 L 12 8 L 12 7 L 5 7 z M 4 13 L 1 16 L 4 19 L 4 17 L 6 17 L 6 15 L 4 15 L 4 13 z "
    class="ColorScheme-Text"
    />  
</svg>

<svg viewBox="0 0 22 22" xmlns="http://www.w3.org/2000/svg">
 <defs>
  <style type="text/css">.ColorScheme-Text {
        color:#2e3440;
      }</style>
 </defs>
 <path class="ColorScheme-Text" d="m3 3v1 1 1l-2 3v1 1.4004 0.59961h1v-1-0.59961-0.40039h0.40039 0.59961 1.0781l6.9219 3.9961 6.9219-3.9961h0.078125 1 1v0.40039 0.59961 1 6h-6-7v1h1 6 6 1v-1-6-0.59961-1.4141-0.98633l-2-3v-3h-15-1zm1 1h14v1 3.7988l-7 4.041-7-4.041v-3.7988-1zm1 1v0.98633l-0.013672 0.013672h0.013672 12 0.013672l-0.013672-0.013672v-0.98633h-12zm0 2v1h7v-1h-7zm-1 6-3 3 3 3v-2h2v-2h-2v-2z" fill="currentColor"/>
</svg>
